icons/1_Primary/TorGuard.svg

<svg width="1024" height="1024" viewBox="0 0 1024 1024" fill="none" xmlns="http://www.w3.org/2000/svg">
<g clip-path="url(#clip0_2_3690)">
<path d="M512 1024C794.77 1024 1024 794.77 1024 512C1024 229.23 794.77 0 512 0C229.23 0 0 229.23 0 512C0 794.77 229.23 1024 512 1024Z" fill="#98DC9A"/>
<path d="M750 603.7C737.62 588.92 719.39 580.09 700.44 577.63C700.44 553.75 691.25 530.11 674.01 513.38C673.65 481.18 674.01 448.98 673.86 416.78C673.176 375.957 657.239 336.867 629.186 307.201C601.132 277.535 562.992 259.442 522.27 256.48C476.89 252.91 430.27 269.34 397.56 300.99C365.93 330.67 346.98 373.47 346.71 416.87C346.71 447.87 346.62 478.87 346.8 509.8C348.21 526.8 336.89 541.04 334.43 557.47C320.298 558.624 306.668 563.242 294.745 570.917C282.822 578.591 272.973 589.085 266.07 601.47C266.07 601.47 265.47 602.59 264.65 604.23C264.51 604.52 264.34 604.79 264.2 605.08V605.14C262.859 607.82 261.7 610.586 260.73 613.42C255.767 628.532 254.734 644.659 257.73 660.28C264.86 698 300.42 728 339 728.08C457.253 728.174 575.507 728.174 693.76 728.08C721.21 728.17 747.76 711.56 759.87 686.99C773.56 660.59 769.77 626.11 750 603.7ZM401.89 712.37L377.62 712.97C382.31 657.1 407.21 603.16 447.42 564.02C472.11 540.32 501.67 521.25 534.31 510.71C532.96 515.88 527.31 517.29 523.31 519.84C509.31 526.84 497.09 536.69 484.23 545.49C451.7 573.49 426.23 609.98 413.77 651.19C407.14 671 404.26 691.71 401.89 712.37ZM397.05 410.78C398.61 375.07 418.5 340.92 448.5 321.57C461.783 312.934 476.735 307.19 492.384 304.711C508.033 302.232 524.028 303.073 539.33 307.18C587.84 319.25 624.78 366.62 623.58 416.78C623.43 441.17 623.76 465.59 623.34 489.98C607.332 488.81 591.286 491.66 576.66 498.27C550.56 467.75 511.75 447.57 471.26 447.27C445.04 446.58 419.15 454.42 396.71 467.78C397 448.77 396.36 429.76 397.05 410.78ZM451.18 713.28H435.18C452 639.87 507.4 577 577.72 550.3C581.29 549.01 585.14 549.73 588.86 549.79C572.04 557.9 556.63 568.32 541.19 578.68C499.44 612.5 469.85 660.53 459.31 713.27L451.18 713.28ZM625.42 594.54C611.27 601.42 599.42 611.84 586.42 620.54C557.83 645.83 534.42 677.28 521.03 713.23H513.64C508.77 713.17 503.88 713.14 499.01 713.08C524.09 653.46 575.45 606.3 636.4 585.08C635.84 590.85 629.47 591.87 625.42 594.54ZM662.66 420.18C662.38 417.827 662.047 415.474 661.66 413.12C660.557 406.055 659.045 399.06 657.13 392.17C654.584 382.983 651.265 374.028 647.21 365.4C645.21 361.1 642.987 356.904 640.54 352.81C638.093 348.717 635.483 344.757 632.71 340.93C629.905 337.109 626.901 333.437 623.71 329.93C620.489 326.39 617.074 323.031 613.48 319.87C606.575 313.776 599.221 308.21 591.48 303.22C568.16 288.22 541.19 278.64 513.36 278.84C470.71 276.84 429.29 297.16 399.52 326.84C375.85 352.4 362.58 386.22 358.37 420.52C357.37 379.52 373.37 338.16 402.79 309.45C430.9 281.1 470.64 264.97 510.53 265C548.193 264.765 584.602 278.52 612.7 303.6C616.673 307.155 620.446 310.927 624 314.9C627.227 318.447 630.267 322.144 633.12 325.99C647.408 345.34 656.895 367.807 660.8 391.54C662.353 401.004 662.976 410.596 662.66 420.18Z" fill="white"/>
</g>
<defs>
<clipPath id="clip0_2_3690">
<rect width="1024" height="1024" fill="white"/>
</clipPath>
</defs>
</svg>

<svg width="1024" height="1024" fill="none" xmlns="http://www.w3.org/2000/svg"><g clip-path="url(#a)"><path d="M512 1024c282.77 0 512-229.23 512-512S794.77 0 512 0 0 229.23 0 512s229.23 512 512 512Z" fill="#98DC9A"/><path d="M750 603.7c-12.38-14.78-30.61-23.61-49.56-26.07 0-23.88-9.19-47.52-26.43-64.25-.36-32.2 0-64.4-.15-96.6a163.473 163.473 0 0 0-151.59-160.3c-45.38-3.57-92 12.86-124.71 44.51-31.63 29.68-50.58 72.48-50.85 115.88 0 31-.09 62 .09 92.93 1.41 17-9.91 31.24-12.37 47.67a86.302 86.302 0 0 0-68.36 44s-.6 1.12-1.42 2.76c-.14.29-.31.56-.45.85v.06a66.959 66.959 0 0 0-3.47 8.28 93.65 93.65 0 0 0-3 46.86C264.86 698 300.42 728 339 728.08c118.253.094 236.507.094 354.76 0 27.45.09 54-16.52 66.11-41.09 13.69-26.4 9.9-60.88-9.87-83.29ZM401.89 712.37l-24.27.6c4.69-55.87 29.59-109.81 69.8-148.95 24.69-23.7 54.25-42.77 86.89-53.31-1.35 5.17-7 6.58-11 9.13-14 7-26.22 16.85-39.08 25.65-32.53 28-58 64.49-70.46 105.7-6.63 19.81-9.51 40.52-11.88 61.18Zm-4.84-301.59c1.56-35.71 21.45-69.86 51.45-89.21a112.923 112.923 0 0 1 90.83-14.39c48.51 12.07 85.45 59.44 84.25 109.6-.15 24.39.18 48.81-.24 73.2a96.302 96.302 0 0 0-46.68 8.29c-26.1-30.52-64.91-50.7-105.4-51-26.22-.69-52.11 7.15-74.55 20.51.29-19.01-.35-38.02.34-57Zm54.13 302.5h-16C452 639.87 507.4 577 577.72 550.3c3.57-1.29 7.42-.57 11.14-.51-16.82 8.11-32.23 18.53-47.67 28.89-41.75 33.82-71.34 81.85-81.88 134.59l-8.13.01Zm174.24-118.74c-14.15 6.88-26 17.3-39 26-28.59 25.29-52 56.74-65.39 92.69h-7.39c-4.87-.06-9.76-.09-14.63-.15 25.08-59.62 76.44-106.78 137.39-128-.56 5.77-6.93 6.79-10.98 9.46Zm37.24-174.36c-.28-2.353-.613-4.706-1-7.06a184.52 184.52 0 0 0-4.53-20.95 169.13 169.13 0 0 0-9.92-26.77c-2-4.3-4.223-8.496-6.67-12.59a161.292 161.292 0 0 0-7.83-11.88 135.414 135.414 0 0 0-9-11 129.14 129.14 0 0 0-10.23-10.06 183.49 183.49 0 0 0-22-16.65c-23.32-15-50.29-24.58-78.12-24.38-42.65-2-84.07 18.32-113.84 48-23.67 25.56-36.94 59.38-41.15 93.68-1-41 15-82.36 44.42-111.07 28.11-28.35 67.85-44.48 107.74-44.45a152.006 152.006 0 0 1 102.17 38.6 143.943 143.943 0 0 1 11.3 11.3 143.622 143.622 0 0 1 9.12 11.09 151.859 151.859 0 0 1 27.68 65.55 146.957 146.957 0 0 1 1.86 28.64Z" fill="#fff"/></g><defs><clipPath id="a"><path fill="#fff" d="M0 0h1024v1024H0z"/></clipPath></defs></svg>
